src/ui/assets/img/transactions/t-data-48.svg

<?xml version="1.0" encoding="UTF-8"?>
<svg width="48px" height="48px" viewBox="0 0 48 48" version="1.1" xmlns="http://www.w3.org/2000/svg" xmlns:xlink="http://www.w3.org/1999/xlink">
    <!-- Generator: Sketch 52.1 (67048) - http://www.bohemiancoding.com/sketch -->
    <title>Icon/t-data48</title>
    <desc>Created with Sketch.</desc>
    <g id="Icon/t-data48" stroke="none" stroke-width="1" fill="none" fill-rule="evenodd">
        <rect id="circle" fill-opacity="0.25" fill="#C4D0EF" x="0" y="0" width="48" height="48" rx="24"></rect>
        <circle id="misha-krug" stroke="#5A81EA" stroke-width="1.2" cx="24" cy="24" r="14.4"></circle>
        <path d="M33.5089372,30.248188 L30.1026723,28.2257181 L30.178705,22.0442596 C30.178705,22.0442596 30.178705,22.0442596 30.178705,22.0366564 C30.178705,22.0138466 30.178705,21.99864 30.178705,21.9758302 C30.178705,21.9758302 30.178705,21.9758302 30.178705,21.9758302 C30.178705,21.9606237 30.1711017,21.9378139 30.1711017,21.9226073 C30.1711017,21.9150041 30.1711017,21.9150041 30.1634984,21.9074008 C30.1558952,21.8921942 30.1558952,21.8769877 30.1482919,21.8617812 C30.1482919,21.8541779 30.1482919,21.8541779 30.1406886,21.8465746 C30.1330853,21.8313681 30.1254821,21.8085583 30.1178788,21.7933517 C30.1102755,21.7781452 30.095069,21.7629387 30.0874657,21.7477321 C30.0874657,21.7401288 30.0798625,21.7401288 30.0798625,21.7325256 C30.0722592,21.717319 30.0646559,21.7097158 30.0494494,21.6945092 C30.0494494,21.6945092 30.0418461,21.686906 30.0418461,21.686906 C30.0266396,21.6716994 30.0190363,21.6640961 30.0038298,21.6488896 C30.0038298,21.6488896 30.0038298,21.6488896 30.0038298,21.6488896 C29.9886232,21.6336831 29.9734167,21.6260798 29.9582101,21.6184765 C29.9582101,21.6184765 29.9582101,21.6184765 29.9506069,21.6184765 L24.6283179,18.4631195 L24.6283179,14.4942125 C24.6283179,14.2204948 24.407823,14 24.1341053,14 C24.1341053,14 24.1341053,14 24.1341053,14 C23.8603876,14 23.6398928,14.2204948 23.6398928,14.4942125 L23.6398928,18.4555162 L18.2491744,21.4816177 C18.2491744,21.4816177 18.2491744,21.4816177 18.2415711,21.4816177 C18.2263645,21.4892209 18.211158,21.5044275 18.1883482,21.5120307 C18.1883482,21.5120307 18.1883482,21.5120307 18.1807449,21.5120307 C18.1655384,21.519634 18.1503318,21.5348406 18.1427286,21.5500471 C18.1427286,21.5500471 18.1351253,21.5576504 18.1351253,21.5576504 C18.127522,21.5652536 18.1123155,21.5804602 18.1047122,21.5880634 C18.1047122,21.5956667 18.097109,21.5956667 18.097109,21.60327 C18.0819024,21.6184765 18.0742991,21.6336831 18.0666959,21.6488896 C18.0590926,21.6640961 18.0514893,21.686906 18.0362828,21.7021125 C18.0362828,21.7097158 18.0362828,21.7097158 18.0286795,21.717319 C18.0210763,21.7325256 18.0210763,21.7477321 18.013473,21.7629387 C18.013473,21.7705419 18.013473,21.7705419 18.0058697,21.7781452 C17.9982664,21.7933517 17.9982664,21.8161615 17.9906632,21.8313681 C17.9906632,21.8313681 17.9906632,21.8313681 17.9906632,21.8313681 C17.9906632,21.8541779 17.9830599,21.8693844 17.9830599,21.8921942 C17.9830599,21.8921942 17.9830599,21.8921942 17.9830599,21.8997975 L17.9070272,28.1268756 L14.5007623,30.0352964 C14.2650609,30.1721553 14.1814249,30.4686828 14.3106805,30.7043842 C14.4019197,30.8640528 14.5691917,30.9552921 14.7440669,30.9552921 C14.8277029,30.9552921 14.9113388,30.9324823 14.9873715,30.8944659 L18.4316528,28.9632353 L23.7083222,32.0957826 C23.7083222,32.0957826 23.7083222,32.0957826 23.7159255,32.0957826 C23.731132,32.1033858 23.7539418,32.1185924 23.7691484,32.1261956 C23.7691484,32.1261956 23.7691484,32.1261956 23.7767516,32.1261956 C23.7919582,32.1337989 23.8071647,32.1414022 23.8299745,32.1414022 C23.8375778,32.1414022 23.8375778,32.1414022 23.8451811,32.1490055 C23.8603876,32.1566087 23.8755941,32.1566087 23.8908007,32.1566087 C23.898404,32.1566087 23.898404,32.1566087 23.9060072,32.1566087 C23.9212138,32.1566087 23.9440236,32.164212 23.9592301,32.164212 C23.9592301,32.164212 23.9668334,32.164212 23.9668334,32.164212 C23.9668334,32.164212 23.9668334,32.164212 23.9668334,32.164212 C23.9668334,32.164212 23.9668334,32.164212 23.9668334,32.164212 C23.9668334,32.164212 23.9668334,32.164212 23.9668334,32.164212 C23.9896432,32.164212 24.0048497,32.164212 24.0276595,32.164212 C24.0352628,32.164212 24.0352628,32.164212 24.0428661,32.164212 C24.0580726,32.164212 24.0732792,32.1566087 24.0884857,32.1566087 C24.096089,32.1566087 24.096089,32.1566087 24.1036922,32.1566087 C24.1188988,32.1490055 24.1341053,32.1490055 24.1493119,32.1414022 C24.1493119,32.1414022 24.1569151,32.1414022 24.1569151,32.1414022 C24.1721217,32.1337989 24.1949315,32.1261956 24.210138,32.1185924 C24.210138,32.1185924 24.210138,32.1185924 24.210138,32.1185924 L29.6008564,29.0924909 L33.0071214,31.1149607 C33.0831541,31.1605804 33.1743933,31.1833902 33.2580293,31.1833902 C33.4253012,31.1833902 33.5925732,31.0997542 33.6838124,30.9400855 C33.8206713,30.6891776 33.7370353,30.3926501 33.5089372,30.248188 Z M18.8954523,28.0888593 L18.9638817,22.758967 L23.5410503,25.4809377 L23.4726208,30.8108299 L18.8954523,28.0888593 Z M24.1112955,19.3070824 L28.688464,22.0290531 L24.0428661,24.6369747 L19.4656976,21.9150041 L24.1112955,19.3070824 Z M24.5294754,25.4961442 L29.1750733,22.8882226 L29.1066439,28.2181149 L24.4610459,30.8260365 L24.5294754,25.4961442 Z" id="data" stroke="#5A81EA" stroke-width="0.2" fill="#5A81EA" fill-rule="nonzero"></path>
    </g>
</svg>

<svg height="48" width="48" xmlns="http://www.w3.org/2000/svg"><g fill="none" fill-rule="evenodd"><rect fill="#c4d0ef" fill-opacity=".25" height="48" rx="24" width="48"/><g stroke="#5a81ea"><circle cx="24" cy="24" r="14.4" stroke-width="1.2"/><path d="m33.509 30.248-3.406-2.022.076-6.182v-.068c0-.015-.008-.038-.008-.053 0-.008 0-.008-.008-.016-.007-.015-.007-.03-.015-.045 0-.008 0-.008-.007-.015-.008-.016-.016-.038-.023-.054-.008-.015-.023-.03-.03-.045 0-.008-.008-.008-.008-.015-.008-.016-.015-.023-.03-.038l-.008-.008-.038-.038a.16.16 0 0 0-.046-.03h-.007l-5.323-3.156v-3.969a.493.493 0 1 0-.988 0v3.962l-5.39 3.026h-.008c-.016.007-.03.022-.054.03h-.007a.092.092 0 0 0-.038.038l-.008.008-.03.03c0 .008-.008.008-.008.015a.16.16 0 0 0-.03.046c-.008.015-.016.038-.03.053 0 .008 0 .008-.008.015-.008.016-.008.03-.016.046 0 .008 0 .008-.007.015-.008.015-.008.038-.015.053 0 .023-.008.038-.008.061v.008l-.076 6.227-3.406 1.908a.497.497 0 0 0-.19.67c.09.16.258.25.433.25a.549.549 0 0 0 .243-.06l3.445-1.932 5.276 3.133h.008c.015.007.038.023.053.03h.008c.015.008.03.015.053.015.008 0 .008 0 .015.008.015.008.03.008.046.008h.015c.015 0 .038.007.053.007h.084c.015 0 .03-.007.045-.007h.016c.015-.008.03-.008.045-.016h.008l.053-.022 5.39-3.027 3.407 2.023a.499.499 0 0 0 .251.068.487.487 0 0 0 .426-.243.518.518 0 0 0-.175-.692zm-14.614-2.16.069-5.329 4.577 2.722-.068 5.33zm5.216-8.78 4.577 2.721-4.645 2.608-4.577-2.722zm.418 6.188 4.646-2.608-.068 5.33-4.646 2.608z" fill="#5a81ea" fill-rule="nonzero" stroke-width=".2"/></g></g></svg>
